!!!OTL: "Fein's Trudchen" FEINS TRUDCHEN SOLLST FRUEH AUFSTEHEN
!!!ARE: Europa, Mitteleuropa, Deutschland, Niederrhein
!!!SCT: Z1052
!!!YEM: Copyright 1995, estate of Helmut Schaffrath.
**kern
*ICvox
*Ivox
*M6/8
*k[b-]
*F:
{8c
=1
8.f
16g
8a
8g
8a
8g
=2
4f
8d
4c}
{8c
=3
8.f
16g
8a
8g
8a
8g
=4
4f
8d
4c
8r}
=5
{4.a
4.b-
=6
8cc
8a
8f
8g
8f
8g
=7
8.f
16g
8a
8g
8a
8b-}
=8
{4.a
4.b-
=9
8cc
8a
8f
8g
8f
8g
=10
[4.f
4f]}
==
!!!AGN: Romanze, Ballade
!!!ONB: ESAC (Essen Associative Code) Database: ZUCCAL
!!!AMT: compound duple
!!!AIN: vox
!!!EED: Helmut Schaffrath
!!!EEV: 1.0
*-
